X:280
T: Der schne Kohlenbrenbub (3-82), S. 226
N: P1055
O: Lothringen
S: PINCK, Louis: Verklingende Weisen, Bd3, Metz 1933]
R: ???]
M: 3/4
L: 1/8
K: F
 | CCAAAA | CCAAA2
G2c2AG | A2F2F2
CAA2CC | AAA4
G2c2AG | F6
G2C2CC | AAF2F2
G2C2C2 | F3AA2 | c6

